X:1
T:To bless thy chosen race
T:Joseph Stephenson
T:Text: Tate/Brady on Ps. 67
T:This edition by Edmund Gooch released into the public domain, March 2014.
T:To bless thy chosen race
T:Ps: 67th
C:Joseph Stephenson
Z:Text: Tate/Brady on Ps. 67
%%score [ 1 2 3 ]
L:1/8
M:3/4
K:D
V:1 treble nm="Alto" snm="A."
V:2 treble-8 transpose=-12 nm="Tenor" snm="T."
V:3 bass nm="Bass" snm="B."
V:1
 D2 | F4 G2 | A4 A2 | F4 A2 | A4 A2 | A2 ^G4 | A4 A2 | F4 A2 | A4 F2 | B4 A2 | A4 A2 | G4 F2 | %12
w: Let|diff- ’ring|na- tions|join To|ce- le-|brate thy|fame; Let|all the|world, O|Lord, com-|bine To|praise thy|
w: To|bless thy|cho- sen|race, In|mer- cy,|Lord, in-|cline; And|cause the|bright- ness|of thy|face On|all thy|
w: That|so thy|won- drous|ways May|through the|world be|known, Whilst|dis- tant|lands their|tri- bute|pay, And|thy sal-|
 E2 ^D4 | E4 A2 | (F>G A2) (AG) | F2 E4 | F4 |] %17
w: glo- rious|name, to|praise _ _ thy _|glo- rious|name.|
w: saints to|shine, on|all _ _ thy _|saints to|shine.|
w: va- tion|own, and|thy _ _ sal- *|va- tion|own.|
V:2
 A2 | (d>e f2) e2 | (d3 e) c2 | d4 e2 | f4 e2 | d2 B4 | A4 A2 | d4 e2 | f4 d2 | g4 f2 | e4 A2 | %11
w: Let|diff'- * * ring|na- * tions|join To|ce- le-|brate thy|fame; Let|all the|world, O|Lord, com-|bine To|
w: To|bless _ _ thy|cho- * sen|race, In|mer- cy,|Lord, in-|cline; And|cause the|bright- ness|of thy|face On|
w: That|so _ _ thy|won- * drous|ways May|through the|world be|known, Whilst|dis- tant|lands their|tri- bute|pay, And|
 B4 A2 | G2 F4 | E4 A2 | (d>e f2) e2 | d2 c4 | d4 |] %17
w: praise thy|glo- rious|name, to|praise _ _ thy|glo- rious|name.|
w: all thy|saints to|shine, on|all _ _ thy|saints to|shine.|
w: thy sal-|va- tion|own, and|thy _ _ sal-|va- tion|own.|
V:3
 D,2 | D,4 E,2 | A,4 A,,2 | D,4 A,2 | D4 A,2 | D,2 E,4 | A,,4 A,2 | B,4 A,2 | F,4 B,2 | %9
w: Let|diff'- ring|na- tions|join To|ce- le-|brate thy|fame; Let|all the|world, O|
w: To|bless thy|cho- sen|race, In|mer- cy,|Lord, in-|cline; And|cause the|bright- ness|
w: That|so thy|won- drous|ways May|through the|world be|known, Whilst|dis- tant|lands their|
"^Let diff’ring nations joinTo celebrate thy fame;Let all the world, O Lord, combineTo praise thy glorious name.Then shall the teeming groundA large increase disclose;And we with plenty shall be crown’d,Which God, our God, bestows.Then God upon our landShall constant blessings show’r,And all the world in awe shall standOf his resistless pow’r." G,4 D,2 | %10
w: Lord, com-|
w: of thy|
w: tri- bute|
 A,4 A,2 | E,4 F,2 | %12
w: bine To|praise thy|
w: face On|all thy|
w: pay, And|thy sal-|
 B,,2"^Notes:The order of parts here is as given in the source.The topmost stave is printed in the alto clef in the source,and so is shown to be an alto part. The second stave isprinted in the treble clef without indication of octave in thesource: it has been treated as a tenor part in this edition,but could be doubled by sopranos an octave higher.The text is indicated in the source by the heading ‘Ps: 67th’,and the first line as ‘To bless thy Chosen race &c.’.The remainder of the text has been added." B,,4 | %13
w: glo- rious|
w: saints to|
w: va- tion|
 E,4 D,2 | D4 (F,E,) | (F,G,) A,4 | D,4 |] %17
w: name, to|praise thy _|glo- * rious|name.|
w: shine, on|all thy _|saints _ to|shine.|
w: own, and|thy sal- *|va- * tion|own.|

